!!!!SEGMENT: pl-wtm--r-1396_stefani-jozef--mazur-nr-5.krn
!!!cenid: 18xx:1869
!!!COM: Stefani, Józef
!!!COM-rismid: pe30024097
!!!CDT: 1800/04/16-1876/03/19
!!!CNT: Polish
!!!OTL: Mazur nr 5
!!!PDT:
!!!AGN: Secular; Mazurka
!!!OMD: Moderato
!!!SMS-siglum: PL-Wtm
!!!SMS-shelfmark: R 1396
!!!SMS-shelfwork: W
!!!SMS-variant:
!!!SMS-altvar:
!!!NIFC-rismid: 1001117334
!!!URL-scan: http://repozytorium.nifc.pl/skany/pl-wtm-nut--r1396
!!!ONB-nifc: UWAGA: Introducjone + Mazur razem
!!!AIN: 2 forte
!!!key:
**kern	**dynam	**kern	**dynam
*part2	*part2	*part1	*part1
*staff2	*	*staff1	*
*Iforte	*	*Iforte	*
*I"Fortepian	*	*I"Fortepian	*
*clefF4	*	*clefG2	*
*k[b-]	*	*k[b-]	*
*D:	*	*D:	*
*M3/4	*	*M3/4	*
*>[A,B,B1,B,B2,C,C,D,D,E,E1,E,E2,A,B,B1,B,B2,F]	*	*>[A,B,B1,B,B2,C,C,D,D,E,E1,E,E2,A,B,B1,B,B2,F]	*
=1	=1	=1	=1
*>A	*	*>A	*
*all\right	*	*all\right	*
!	!	!LO:TX:a:i:t=Introducjone	!
(8qAAA/	.	.	.
!	!	!	!LO:DY:rj
4AA/)	.	8.A/|L	f
!	!	!	!LO:DY:rj
.	.	16c#X/|Jk	p
4G\ 4E\ 4AA\	.	8c#/|L	.
.	.	(16d/L	.
.	.	16c#/JJ	.
4G\ 4E\ 4AA\	.	8.B-/L)	.
.	.	16A/Jk	.
=2	=2	=2	=2
(>8qDD/	.	.	.
4D\)	.	8.d/L	.
.	.	16f/Jk	.
4F/ 4D/ 4AA/	.	4b-X^/	.
4F/ 4D/ 4AA/	.	8a/	.
.	.	8r	.
=3	=3	=3	=3
(8qAAA/	.	.	.
!	!	!	!LO:DY:rj
4AA/)	.	8.A'/L	f
!	!	!	!LO:DY:rj
.	.	16c#X'/Jk	p
4G\ 4E\ 4AA\	.	8c#'/L	.
.	.	(16d/L	.
.	.	16c#/JJ	.
4G\ 4E\ 4AA\	.	8B-/L)	.
.	.	8A'/J	.
=4	=4	=4	=4
!!LO:LB:g=original
(8qDD/	.	.	.
4D\)	.	8d'/L	.
.	.	(8B-/J	.
4F/ 4D/ 4AA/	.	2A/)	.
4F/ 4D/ 4AA/	.	.	.
=5	=5	=5	=5
(8qAAA/	.	.	.
!	!	!	!LO:DY:rj
4AA/)	.	8.a\'L	f
.	.	16cc#X\|Jk	.
4G\ 4E\ 4AA\	.	8cc#\|L	.
.	.	(16dd\L	.
.	.	16cc#\JJ	.
4G\ 4E\ 4AA\	.	8.b-\L)	.
.	.	16a\|Jk	.
=6	=6	=6	=6
(8qDD/	.	.	.
4D\)	.	8.dd\L	.
.	.	16ff\Jk	.
!	!	!LO:S:s=2:note:problem=note-level slur	!
4F/ 4D/ 4AA/	.	(>(>4bb-X\ 4b-X^<\	.
4F/ 4D/ 4AA/	.	8aa\ 8a\))	.
.	.	8r	.
=7	=7	=7	=7
(8qAAA/	.	.	.
4AA/)	.	8.a'\L	.
.	.	16cc#X'\Jk	.
4G\ 4E\ 4AA\	.	8cc#'\L	.
.	.	(16dd\L	.
.	.	16cc#\JJ	.
4G\ 4E\ 4AA\	.	8.b-\L)	.
.	.	16a'\Jk	.
=8	=8	=8	=8
!!LO:LB:g=original
(>8qDD/	.	.	.
4D\)	.	8.dd\|L	.
.	.	(16b-\Jk	.
4F/ 4D/ 4AA/	.	2a/)	.
4F/ 4D/ 4AA/	.	.	.
=9	=9	=9	=9
*^	*	*	*
.	(8qBBB-/	.	.	.
!	!	!	!	!LO:DY:rj
4rA	2.BB-\)	.	8.dd\L	p
.	.	.	16b-\Jk	.
4F/ 4D/	.	.	4f/	.
4G/ 4F/ 4D/	.	.	4g/	.
=10	=10	=10	=10	=10
4rA	2.AA\	.	8.a/L	.
.	.	.	16b-/Jk	.
4A/ 4E/ 4C#X/	.	.	2a/	.
4A/ 4E/ 4C#/	.	.	.	.
=11	=11	=11	=11	=11
!	!	!	!	!LO:DY:rj
4rA	2.BB-\	.	8.ddd\L 8.dd\	f
.	.	.	16bb-\Jk 16b-\	.
4F/ 4D/	.	.	4ff\ 4f\	.
4G/ 4F/ 4D/	.	.	4gg\ 4g\	.
*v	*v	*	*	*
=12	=12	=12	=12
4..A/ 4..E/ 4..C#X/ 4..AA/	.	8.aa\L 8.a'\	.
.	.	16bb-\K 16b-'\	.
.	.	8.aa\ 8.a'\	.
16C#X/KL 16CC#X/	.	16ee\K 16e'\	.
8.D/ 8.DD/	.	8.ff\ 8.f'\	.
16BB-/Jk 16BBB-/	.	16gg\Jk 16g'\	.
=13	=13	=13	=13
!!LO:LB:g=original
4..AA/ 4..AAA/	.	8.aa\L 8.a\	.
.	.	16bb-\K 16b-\	.
.	.	8.aa\ 8.a\	.
16C#X/KL 16CC#X/	.	16ee\K 16e\	.
8.D/ 8.DD/	.	8.ff\ 8.f\	.
16BB-/Jk 16BBB-/	.	16gg\Jk 16g\	.
=14	=14	=14	=14
*rep	*	*	*
4..AA/ 4..AAA/	.	8.aa\L 8.a\	.
.	.	16bb-\K 16b-\	.
.	.	8.aa\ 8.a\	.
16C#X/KL 16CC#X/	.	16ee\K 16e\	.
8.D/ 8.DD/	.	8.ff\ 8.f\	.
16BB-/Jk 16BBB-/	.	16gg\Jk 16g\	.
*Xrep	*	*	*
=15	=15	=15	=15
4AA/ 4AAA/	.	8.aa\L 8.a\	.
.	.	(16b-\|Jk	.
!	!LO:DY:a:rj	!	!
4g\ 4e\	p	8.a/L)	.
.	.	(16b-/|Jk	.
4f\ 4d\	.	8.a/L)	.
.	.	(16b-/|Jk	.
=16	=16	=16	=16
4e\ 4c#X\	.	8.a/L)	.
.	.	(16b-/|Jk	.
4f\ 4d\	.	8.a/L)	.
.	.	(<16b-/Jk	.
8e\ 8A\	.	8.a;\L)	.
!LO:TX:b:i:t=attacca\nMazur	!	!	!
8r;	.	.	.
.	.	16aa\Jk	.
=17||	=17||	=17||	=17||
!!LO:PB:g=original
*>B	*	*>B	*
*k[f#c#]	*	*k[f#c#]	*
*M3/8	*	*M3/8	*
!!!OMD: Mazur
!	!	!LO:TX:t=[segno]	!
!	!	!	!LO:DY:rj
16.D/LL 16.DD/	.	16.ff#/LL 16.a/ 16.f#/	f
32C#/JJk 32CC#/	.	32cc#/JJk 32g/ 32e/	.
8D/L 8DD/	.	8dd/L 8f#/ 8d/	.
8GG/J 8GGG/	.	8b/J 8g/ 8d/	.
=18	=18	=18	=18
16AA/ 16AAA/	.	16a/ 16f#/ 16d/	.
16r	.	16r	.
8C#/L 8CC#/	.	8g/L 8e/ 8A/	.
8D/J 8DD/	.	8f#/J 8d/ 8A/	.
=19	=19	=19	=19
8AA/ 8AAA/	.	16.e/LL 16.c#/ 16.A/	.
.	.	32f#/K 32d/	.
8r	.	16.g/ 16.e/	.
.	.	32a/K 32f#/	.
8A\ 8AA\	.	16.b/ 16.g/	.
.	.	32cc#/JJk 32e/	.
=20	=20	=20	=20
!!LO:LB:g=original
8A\L 8F#\ 8D\	.	8dd\L 8f#^\	.
8A\ 8E\ 8AA\	.	8ee\ 8cc#\ 8a^\	.
8A\J 8F#\ 8D\	.	8ff#\J 8dd\ 8a^\	.
=21	=21	=21	=21
16.E/LL 16.EE/	.	16.gg\LL 16.b\ 16.g\	.
32F#/JJk 32FF#/	.	32dd#X\JJk 32b\ 32a\	.
8G/L 8GG/	.	8ee/L 8b/ 8e/	.
8G#X/J 8GG#X/	.	8ddn/J 8b/ 8e/	.
=22	=22	=22	=22
16A\ 16AA\	.	8cc#/L 8a/ 8e^/	.
16r	.	.	.
8B\L 8G#X\ 8E\	.	8b/ 8g#X/ 8e^/	.
8c#\J 8A\	.	8a/J 8e^/	.
=23	=23	=23	=23
16E/ 16EE/	.	16g#X\LL	.
16r	.	32r	.
.	.	32ff#\K	.
8d\L 8B\ 8G#X\ 8E\	.	16.ee\	.
.	.	32dd\K	.
8d\J 8B\ 8G#\ 8E\	.	16.cc#\	.
.	.	32b\JJk	.
=24	=24	=24	=24
!!LO:LB:g=original
!LO:TX:t=1ma	!	!	!
*>B1	*	*>B1	*
16c#\ 16A\	.	16a/	.
16r	.	16r	.
8A\ 8AA\	.	8aa\ 8cc#\ 8a^<\	.
8A\ 8AA\	.	8gg\ 8ee\ 8cc#\ 8a\	.
=25:|!	=25:|!	=25:|!	=25:|!
!LO:TX:t=2.	!	!	!
*>B2	*	*>B2	*
16c#\ 16A\	.	16a/	.
16r	.	16r	.
8A\ 8AA\	.	8aa\ 8cc#\ 8a\	.
8r	.	8r	.
=26!|:	=26!|:	=26!|:	=26!|:
*>C	*	*>C	*
16.A/LL 16.AA/	.	16.a/LL	<
32G#X/K 32GG#X/	.	32b/K	.
16.Gn/ 16.GGn/	.	16.cc#/ 16.a/	.
32F#/K 32FF#/	.	32dd/K 32a/	.
16.E/ 16.EE/	.	16.ee/ 16.cc#/ 16.a/	.
32D/JJk 32DD/	.	32ff#/JJk 32dd/ 32a/	[[
=27	=27	=27	=27
16C#/ 16CC#/	.	16gg\ 16ee\ 16a\	.
16r	.	16r	.
8.AA/L 8.AAA/	.	8.aa\L 8.cc#\ 8.a^<\	.
!	!	!LO:N:vis=8	!
16C#/Jk 16CC#/	.	16gg\Jk 16ee\ 16a\	.
=28	=28	=28	=28
!!LO:LB:g=original
!	!	!	!LO:DY:rj
16D/ 16DD/	.	16ff#\LL 16dd\	f
16r	.	32r	.
.	.	32bb\JJk 32gg\ 32dd\	.
8d\L 8A\ 8F#\ 8D\	.	8aa\L 8ff#\ 8dd\	.
8d\J 8A\ 8F#\ 8D\	.	8ff#\J 8dd\	.
=29	=29	=29	=29
*rep	*	*	*
16DD/	.	16ddd\LL 16ff#\ 16dd\	.
16r	.	32r	.
.	.	32bb\JJk 32gg\ 32dd'\	.
8d\L 8A\ 8F#\ 8D\	.	8aa\L 8ff#\ 8dd\	.
8d\J 8A\ 8F#\ 8D\	.	8ff#\J 8dd\	.
*Xrep	*	*	*
=30	=30	=30	=30
16.B/LL 16.BB/	.	16.b\LL	.
!LO:SIC:v:n=2:s=32AA#	!	!	!
32A#X/K 32AA/	.	32cc#\K	.
16.An/ 16.AAn/	.	16.dd#X\ 16.b\	<
32G/K 32GG/	.	32ee\K 32b\	.
16.F#/ 16.FF#/	.	16.ff#\ 16.dd#\ 16.b\	.
32E/JJk 32EE/	.	32gg\JJk 32ee\ 32b\	.
=31	=31	=31	=31
16D#X/ 16DD#X/	.	16aa\ 16ff#\ 16b\	[
16r	.	16r	.
8.BB/L 8.BBB/	.	8.bb\L 8.dd#X\ 8.b^<\	.
16D#/Jk 16DD#/	.	16aa\Jk 16ff#\ 16b\	.
=32	=32	=32	=32
!!LO:LB:g=original
!	!	!	!LO:DY:rj
16E/LL 16EE/	.	16gg\LL 16ee\	f
32r	.	32r	.
32D/JJk 32DD/	.	32aa\JJk 32ff#\	.
8G/L 8GG/	.	8bb\L 8gg\	.
8A/J 8AA/	.	8ccc#\J 8gg\ 8ee\	.
=33	=33	=33	=33
16D/ 16DD/	.	16ddd\ 16ff#\ 16dd\	.
16r	.	16r	.
8A\ 8F#\ 8D\	.	8dd/ 8f#/ 8d/	.
!	!	!LO:TX:b:t=fine	!
!	!	!LO:TX:t=P:problem=fermata na kresce taktowej	!
8r	.	8r;	.
=34:|!	=34:|!	=34:|!	=34:|!
!!LO:PB:g=original
*>D	*	*>D	*
*k[f#]	*	*k[f#]	*
*M3/8	*	*M3/8	*
!!!OMD: Trio
(8qe/	.	(8qee/	.
16.d\LL)	.	16.dd\LL)	.
32c#X'\JJk	.	32cc#X'\JJk	.
4d'\	.	4dd'\	.
=35	=35	=35	=35
(8qe/	.	(8qee/	.
16.d\LL)	.	16.dd\LL)	.
32c#X'\JJk	.	32cc#X'\JJk	.
4d'\	.	4dd'\	.
=36	=36	=36	=36
.	.	(8qee/ 8qccn/	p
16G\ 16GG\	.	16.dd\LL 16.b\)	.
16r	.	.	.
.	.	32cc#X\JJk 32a#X'\	.
8d\L 8B\ 8G\	.	16.dd\LL 16.b'\	.
.	.	32b\K 32g'\	.
8d\J 8B\ 8G\	.	16.ccn\ 16.an'\	.
.	.	32cc#X\JJk 32a#X'\	.
=37	=37	=37	=37
!!LO:LB:g=original
16G\ 16GG\	.	16ee\ 16ccn|\	.
16r	.	16r	.
8d\L 8B\ 8G\	.	4dd\ 4b^<\	.
8d\J 8B\ 8G\	.	.	.
=38	=38	=38	=38
.	.	(<8qff#/	.
16G\ 16GG\	.	16.ee\LL 16.cc\)	.
16r	.	.	.
.	.	32dd#X\JJk 32b\	.
8e\L 8c\ 8G\	.	16ee\LL 16cc\	.
.	.	16gg\ 16ee\	.
8e\J 8c\ 8G\	.	16ff#\ 16dd#\	.
.	.	16ee\JJ 16cc\	.
=39	=39	=39	=39
16D/ 16DD/	.	16dd\ 16b\	.
16r	.	16r	.
8D#X/L 8DD#X/	.	8cc/L 8a/ 8f#^/	.
8E/J 8EE/	.	8b/J 8g/	.
=40	=40	=40	=40
.	.	(8qb/	f
16C#X/ 16CC#X/	.	16.a/LL)	.
16r	.	.	.
.	.	32g#X/JJk	.
8G/L 8E/ 8AA/	.	8a/L	.
8G/J 8E/ 8AA/	.	8ee/J 8cc#X/ 8a/	.
=41	=41	=41	=41
!!LO:LB:g=original
16D/ 16DD/	.	16.ff#\LL 16.dd\ 16.a\	.
16r	.	.	.
.	.	32cc#X\K	.
8F#/L 8D/ 8AA/	.	16.dd\	.
.	.	32b\JK	.
8F#/J 8D/ 8AA/	.	8a^^\J	.
=42	=42	=42	=42
.	.	(8qb/	.
16AA/ 16AAA/	.	16.a/LL)	.
16r	.	.	.
.	.	32g#X'/JJk	.
8G\L 8E\ 8C#X\ 8AA\	.	16.a'/LL	.
.	.	32e'/K	.
8G\J 8E\ 8C#\ 8AA\	.	16.gn'/	.
.	.	32f#'/JJk	.
=43	=43	=43	=43
16D/ 16DD/	.	(32f#/LLL	.
.	.	32e/J	.
16r	.	16d/JJ)	.
8A\ 8F#\ 8D\	.	8dd/ 8f#/ 8d/	.
8r	.	8r	.
=44:|!|:	=44:|!|:	=44:|!|:	=44:|!|:
*>E	*	*>E	*
*	*	*Xtuplet	*
!	!	!	!LO:DY:rj
16D/ 16DD/	.	24dd'\LL	f
.	.	(24ff#\	.
16r	.	.	.
.	.	24gg\JJ)	.
8c\L 8A\ 8F#\ 8D\	.	8aa\L	.
8c\J 8A\ 8F#\ 8D\	.	8ccc\J 8aa\ 8ff#\ 8dd'^<\	.
=45	=45	=45	=45
!!LO:LB:g=original
16GG/	.	(24eee\LL	.
.	.	24ddd\)	.
16r	.	.	.
.	.	24ccc#X'\JJ	.
8B\L 8G\ 8D\	.	8ddd'\L	.
8B\J 8G\ 8D\	.	8bb\J 8gg\ 8dd'^<\	.
=46	=46	=46	=46
16D/ 16DD/	.	(24bb\LL	.
.	.	24ccc\)	.
16r	.	.	.
.	.	24gg#X'\JJ	.
8c\L 8A\ 8F#\ 8D\	.	8aa'\L	.
8c\J 8A\ 8F#\ 8D\	.	8ccc\J 8aa\ 8ff#\ 8dd'\	.
=47	=47	=47	=47
16GG/	.	(24eee\LL	.
.	.	24ddd\)	.
16r	.	.	.
.	.	24ccc#X'\JJ	.
8B\L 8G\ 8D\	.	8ddd'\L	.
8B\J 8G\ 8D\	.	8bb\J 8gg\ 8dd'\	.
=48	=48	=48	=48
*^	*	*	*
!	!	!	!	!LO:DY:rj
4D#X/	8D#\L	.	24b'\LL	p
.	.	.	24dd#X'\	.
.	.	.	24ee'\JJ	.
.	8B\J 8F#\	.	16ff#'\	.
.	.	.	16r	.
!	!	!	!	!LO:DY:rj
8B\ 8F#\ 8D#\	8ryy	.	8bb\ 8ff#\ 8dd#\ 8b\	sf
*v	*v	*	*	*
=49	=49	=49	=49
!!LO:LB:g=original
8E\|<L	.	(24aa\LL	.
.	.	24gg\)	.
.	.	24ff#'\JJ	.
8B|<\J 8G\	.	8gg'\L	.
8A\ 8E\ 8C\	.	8ee'\J	.
=50	=50	=50	=50
!	!	!	!LO:DY:rj
8B\ 8G\ 8D\	.	24dd\LL	f
.	.	24bb\	.
.	.	24aa\JJ	.
8r	.	24gg\LL	.
.	.	24ff#\	.
.	.	24ee\JJ	.
8c\ 8A\ 8F#\ 8D\	.	24dd\LL	.
.	.	24cc\	.
.	.	24a\JJ	.
=51	=51	=51	=51
!LO:TX:t=1.	!	!	!
*>E1	*	*>E1	*
16B\ 16G\	.	16g/	.
16r	.	16r	.
8G/ 8GG/	.	8gg\ 8dd\ 8b\ 8g'^<\	.
8r	.	8dd\	.
=52:|!	=52:|!	=52:|!	=52:|!
!LO:TX:t=2.	!	!	!
*>E2	*	*E2	*
16B\ 16G\	.	16g/	.
16r	.	16r	.
16G/ 16GG/	.	16gg\ 16dd\ 16b\ 16g\	.
32r	.	32r	.
32G/KLL 32GG/	.	32a/KLL 32e/ 32c#X/	.
16.E/ 16.EE/	.	16.cc#X/ 16.a/ 16.g/ 16.e/	.
!LO:TX:b:i:t=d'al segno al fine\ne poi la Coda	!	!LO:TX:t=[segno]:problem=znak segno na kresce taktowej	!
32C#X/JJk 32CC#X/	.	32ee/JJk 32a/ 32g/	.
=53||	=53||	=53||	=53||
!!LO:PB:g=original
*>F	*	*>F	*
*k[f#c#]	*	*k[f#c#]	*
*M3/8	*	*M3/8	*
!!!OMD: Coda
(8qD/	.	.	.
!	!	!	!LO:DY:rj
16.d\LL)	.	16.dd'\LL	p
.	.	.	<
32c#\K	.	32ee'\K	.
16.cn\	.	16.ff#\ 16.dd'\	.
32B\K	.	32gg\K 32dd'\	.
16.A\	.	16.aa\ 16.ff#\ 16.dd'\	.
32G\JJk	.	32bb\JJk 32gg\ 32dd'\	[[
=54	=54	=54	=54
16F#\	.	16cccn\ 16aa\ 16dd'\	.
16r	.	16r	f
8.D/L 8.DD/	.	8.ddd\L 8.ff#\ 8.dd'^<\	.
16F#/Jk 16FF#/	.	16ccc\Jk 16ff#\ 16dd'\	.
=55	=55	=55	=55
16G\ 16GG\	.	16bb\LL 16gg\ 16dd'\	.
16r	.	32r	.
.	.	32eee\JJk 32cccn'\	.
8r	.	8ddd\L 8bb'\	.
8G\ 8D\ 8GG\	.	8bb\J 8gg'\	.
=56	=56	=56	=56
16G\ 16D\ 16GG\	.	16ggg\LL 16bb\ 16gg\	.
16r	.	32r	.
.	.	32eeen\JJk 32ccc#\	.
8r	.	8ddd\L 8bb\	.
8G\ 8D\ 8GG\	.	8bb\J 8gg\	.
=57	=57	=57	=57
!!LO:LB:g=original
(8qBB/	.	.	.
16.B\LL)	.	16.b'\LL	.
32A#X\K	.	32cc#'\K	.
16.An\	.	16.dd#X\ 16.b'\	<
32G\K	.	32ee\K 32b'\	.
16.F#\	.	16.ff#\ 16.dd#\ 16.b'\	.
32E\JJk	.	32gg\JJk 32ee\ 32b'\	.
=58	=58	=58	=58
16D#X\	.	16aa\ 16ff#\ 16b'\	.
16r	.	16r	[
8.BB/L 8.BBB/	.	8.bb\L 8.dd#X\ 8.b'^<\	.
16D#X/Jk 16DD#X/	.	16aa\Jk 16ff#\ 16b'\	.
=59	=59	=59	=59
!	!	!	!LO:DY:rj
16.E/LL 16.EE/	.	16.gg\LL 16.ee'\	f
32Dn/JJk 32DDn/	.	32aa\JJk 32ff#'\	.
8G/L 8GG/	.	8bb\L 8gg'\	.
8A/J 8E/ 8AA/	.	8ccc#\J 8gg\ 8ee'\	.
=60	=60	=60	=60
16D/LL 16DD/	.	8ddd\ 8ff#\ 8dd\	.
16B/JJ 16BB/	.	.	.
8A/L 8AA/	.	8r	.
8F#/J 8FF#/	.	8r	.
=61	=61	=61	=61
!!LO:LB:g=original
16.D/LL 16.DD/	.	16.ff#/LL 16.a/ 16.f#/	.
32AA#X/JJk 32AAA#X/	.	32cc#/JJk 32g/ 32e/	.
8BB/L 8BBB/	.	8dd/L 8f#/ 8d/	.
8GG/J 8GGG/	.	8b/J 8g/ 8d/	.
=62	=62	=62	=62
16AA/ 16AAA/	.	16a/ 16f#/ 16d/	.
16r	.	16r	.
8C#/L 8CC#/	.	8g/L 8e/ 8A/	.
8D/J 8DD/	.	8f#/J 8d/ 8A/	.
=63	=63	=63	=63
8AA/ 8AAA/	.	16.e/LL 16.c#/ 16.A/	.
.	.	32f#/K 32d/	.
8r	.	16.g/ 16.e/	.
.	.	32a/K 32f#/	.
8A\ 8AA\	.	16.b/ 16.g/	.
.	.	32cc#/JJk 32e/	.
=64	=64	=64	=64
8A\L 8F#\ 8D\	.	8dd/L 8f#^/	.
8A\ 8E\ 8AA\	.	8ee/ 8cc#/ 8a^/	.
8A\J 8F#\ 8D\	.	8ff#/J 8dd/ 8a^/	.
=65	=65	=65	=65
16.E/LL 16.EE/	.	16.gg\LL 16.b\ 16.g\	.
32F#/JJk 32FF#/	.	32dd#X\JJk 32b\ 32a\	.
8G/L 8GG/	.	8ee/L 8b/ 8e/	.
8G#X/J 8GG#X/	.	8ddn/J 8b/ 8e/	.
=66	=66	=66	=66
!!LO:LB:g=original
8A/L 8AA/	.	8cc#/L 8a/ 8e^/	.
8Gn/ 8GG/	.	8cc#/ 8a/ 8e^/	.
8F#/J 8FF#/	.	8dd/J 8a/ 8d^/	.
=67	=67	=67	=67
16.G/LL 16.GG/	.	16.b\LL 16.g\	.
32E/JJk 32EE/	.	32gg\JJk 32ee\ 32b\	.
8A\L 8AA\	.	8ff#\L 8dd\ 8a\	.
8A\J 8E\ 8AA\	.	8ee\J 8cc#\ 8a\	.
=68||	=68||	=68||	=68||
!!!OMD: piu Allegro.
(16F#\LL 16D\	.	16dd'\LL	.
16A\	.	32r	.
.	.	32b'\JJk	.
16F#\ 16D\	.	8a'/L	.
16A\	.	.	.
.	.	(8qcc#\	.
16F#\ 16D\	.	16b/L)	.
16A\JJ)	.	16a'/JJ	.
=69	=69	=69	=69
(16E\LL 16AA\	.	16cc#\LL 16a'\	.
16A\	.	16dd\JJ 16b'\	.
16E\ 16AA\	.	8ee\L 8cc#'\	.
16A\	.	.	.
16E\ 16AA\	.	8aa\J 8cc#\ 8a'\	.
16A\JJ)	.	.	.
=70	=70	=70	=70
*tremolo	*	*	*
.	.	(8qdd/	.
(16F#\LL 16D\	.	16ddd\LL)	.
16A\	.	32r	.
.	.	32bb\JJk	.
16F#\ 16D\	.	16aa\LL	.
.	.	(8qccc#/	.
16A\	.	16bb\J)	.
16F#\ 16D\	.	8aa\J	.
16A\JJ)	.	.	.
=71	=71	=71	=71
!!LO:LB:g=original
(16E/LL 16AA/	.	16.ccc#\LL 16.aa\	.
16A/	.	.	.
.	.	32ddd\JJk 32bb\	.
16E/ 16AA/	.	8eee\L 8ccc#\	.
16A/	.	.	.
16E/ 16AA/	.	8aaa\J 8ccc#\ 8aa\	.
16A/JJ)	.	.	.
*Xtremolo	*	*	*
=72	=72	=72	=72
(16F#\LL 16D\	.	16ddd'\LL	.
16A\	.	16aa'\	.
.	.	(8qccc#/	.
16F#\ 16D\	.	16bb\)	.
16A\	.	16aa'\	.
16E\ 16AA\	.	(16ccc#\	.
16A\JJ)	.	16eee\JJ)	.
=73	=73	=73	=73
*rep	*	*rep	*
(16F#\LL 16D\	.	16ddd'\LL	.
16A\	.	16aa'\	.
.	.	(8qccc#/	.
16F#\ 16D\	.	16bb\)	.
16A\	.	16aa'\	.
16E\ 16AA\	.	(16ccc#\	.
16A\JJ)	.	16eee\JJ)	.
*Xrep	*	*Xrep	*
=74	=74	=74	=74
*rep	*	*rep	*
(16F#\LL 16D\	.	16ddd'\LL	.
16A\	.	16aa'\	.
.	.	(8qccc#/	.
16F#\ 16D\	.	16bb\)	.
16A\	.	16aa'\	.
16E\ 16AA\	.	(16ccc#\	.
16A\JJ)	.	16eee\JJ)	.
*Xrep	*	*Xrep	*
=75	=75	=75	=75
*rep	*	*rep	*
§(16F#\LL 16D\	.	16ddd'\LL	.
16A\	.	16aa'\	.
.	.	(8qccc#/	.
16F#\ 16D\	.	16bb\)	.
16A\	.	16aa'\	.
16E\ 16AA\	.	(16ccc#\	.
16A\JJ)	.	16eee\JJ)	.
*Xrep	*	*Xrep	*
=76	=76	=76	=76
!!LO:LB:g=original
!	!	!	!LO:DY:rj
8D/ 8DD/	.	16ddd\LL 16ff#\	ff
.	.	16dd\	.
8d\L 8D\	.	(16ddd\ 16ff#\	.
.	.	16dd\	.
8A\J 8AA\	.	16ddd\ 16ff#\	.
.	.	16dd\JJ)	.
=77	=77	=77	=77
*	*	*rep	*
8F#/L 8FF#/	.	16ddd\LL 16ff#\	.
.	.	16dd\	.
8A/ 8AA/	.	(16ddd\ 16ff#\	.
.	.	16dd\	.
8F#/J 8FF#/	.	16ddd\ 16ff#\	.
.	.	16dd\JJ)	.
*	*	*Xrep	*
=78	=78	=78	=78
8D/ 8DD/	.	8ddd\ 8ff#\ 8dd\	.
8r	.	8r	.
8r	.	8r	.
=79	=79	=79	=79
8d\ 8A\ 8F#\ 8D\	.	8fff#\ 8ddd\ 8aa\ 8ff#\	.
8.r	.	8.r	.
16D\ 16DD\	.	16d/ 16A</ 16F#</	.
=80	=80	=80	=80
4.D\ 4.DD;<\	.	4.d/ 4.A</ 4.F#<;/	.
==	==	==	==
*-	*-	*-	*-
!!!system-decoration: {(s1,s2)}
!!!RDF**kern: > = above
!!!RDF**kern: < = below
!!!RDF**kern: | = vertical stroke
!!!EED: Andrzej Borzym
!!!EST: 2021-05-05
!!!ENC: Krzysztof Stępień
!!!END: 2021-04-10
